X:1
T:Les Sept Ivresses
T:Le Vin
T:Les Sept Ivresses
T:2. Le Vin
T:Augusta Mary Anne Holmès
T:Augusta Mary Anne Holmès
T:OpenScore (CC0)
T:OpenScore (CC0)
T:OpenScore (CC0)
T:OpenScore (CC0)
T:OpenScore (CC0)
T:OpenScore (CC0)
T:OpenScore (CC0)
T:OpenScore (CC0)
T:OpenScore (CC0)
C:Augusta Mary Anne Holmès
Z:Augusta Mary Anne Holmès
Z:OpenScore (CC0)
%%score 1 { ( 2 5 ) | ( 3 4 ) }
L:1/8
Q:1/2=104
M:2/2
K:C
V:1 treble nm="Chant\nVoice"
V:2 treble nm="Piano"
V:5 treble 
V:3 bass 
V:4 bass 
V:1
"^Allegro vivace" z8 | z8 | z8 | z8 | z8 | z8 | z8 | z8 | z8 | z8 | z8 | z8 | z8 | z8 | z8 | z8 | %16
w: ||||||||||||||||
!mf! e2 e2 E2 E2 | c2 B A B2 E2 | c2 B c d2 d2 | e2 e2 B4 | A2 ^f2 e2 B ^G | A2 ^f2 e2 B ^c | ^d8 | %23
w: Vins d'Es- pagne et|vins de Hon- gri- e,|Vins d'A- li- cante et|de Schi- raz,|Tout au ras, Em- plis-|sez ma cou- pe fleu-|ri-|
 ^G4- G2 z2 | z8 | z8 | z8 ||[K:Db]!p! A3 B A3 B | (A3 B) A3 B | A3 B (3A2 B2 c2 | %30
w: \- e! _||||E- clair- ez mes|yeux _ obs- cur-|cis, Ca- chez à mon|
 (3e2 d2 c2 (3d2 A2 F2 |!f! c3 _d c4- | c2 f4 e2 | d2 B2 (3G2 A2 B2 | (E4 A2) z2 || %35
w: â- me ra- vi- * e|Les sou- cis|_ Et les|noirs cha- grins de la|vi- e!|
[K:E] B3 c B3 c | B2 e2- (3e2 d2 f2 | (3e2 d2 c2 (3B2 A2 F2 | G2 c2 B2 G2 | =d3 f e4- | e4- e2 z2 | %41
w: Ro- ses vier- *|ges, blonds _ é- chan-|sons, O beau- té! mê- le|ton doux ri- re,|Tes chan- sons,|_ _|
!f! g3 a g4- | (g2 e2 c2) A2 | (3(G2 F2) E2 B4- | (B8 | e4-) e2 z2 | z8 || %47
w: Aux ex- ta-|* * ses de|mon _ dé- li-||\- re! _||
[K:A]!p! E2!<(! =F2- (3F2 ^F2 =G2 | ^G2 A2- (3A2 (^A2 B2)!<)! |!f! (^B2 c4) A2 | E4- E z E2 | e8- | %52
w: Cou- * * ron- nez|\- moi _ _ de _|lierre _ en|fleurs! _ Ver-|sez!|
 e2 z2 (3B2 c2 d2 | f4- (3f2 e2 ^d2 | f2 e2- (3e2 c2 A2 | G8- | G2 z2 G3 G | g8- | g4 c3 c | %59
w: _ que la bru-|meuse _ _ au-|ro- re _ Toute en|pleurs!|_ Me re-|trou-|* ve bu-|
!ff! (g4 f4-) | f2 z2 (3c2 A2 F2 | c8 | B8 | A4- A2 z2 | z8 | z8 | z8 | z8 | z4 z2 z!f! A || %69
w: vant _|_ Bu- vant en-|\- co-||re! _|||||A-|
[K:C] d8- | d4 d4 | d8 | d4 d3 d | _e8- | _e8- | _e8- | _e2 z2 e4 | =e8 | e6 e2 | e8 | e6 e2 | %81
w: vec|_ un|bruit|de gran- des|eaux|_||* Le|vin|à longs|fleu-|ves ruis-|
 f8- | f8 | f4- f2 z2 | z4 z2 z!f! f | f2 f z z4 | z4 z2 z!f! ^f | ^f2 f z z4 | z4 z2 z!f! g | %89
w: sel-||le! _|I-|\- ac- chos!|I-|ac- chos!|I-|
 g2 g z z2 z!f! ^g | ^g2 g z z2 z!ff! g | a3 e c4- | c2 B z A3 f | e8- | e8 | e2 z2 z4 | %96
w: \- ac- chos! I-|ac- chos! Por-|teur du Thyr-|* se, Je t'ap-|\- pel-||le!|
 z4 z2!mf! e2 ||[K:A] e8- | e2 e2 e2 e2 | (f2 e4) c2 | e4- e2 z2 | z2 d2- (3d2 c2 B2 | %102
w: Prends|moi!|_ pos- sè- de-|moi, _ Dieu|fort! _|A- * * né-|
 (3^A2 c2 B2- B2 z2 | z2 (f2- (3f2 e2 ^d2 | f2 e2- e2) z2 | z2!f! A A e4- | e8- | e6 d2 | %108
w: an- tis moi! *|Je _ _ me|li- vre! _|Je suis i-|||
 A2 z2 z4 | z2!f! c c g4- | g8- | g6 f2 | c2 z2!ff! c2 f2 | (a2 g4 f2- | f2 e2) (3z2 c2 A2 | _e8 | %116
w: vre!|Je suis i-|||vre! Je suis|i- * *|* vre! Je suis|i-|
 A2 z2 G2 A2 | =e8- | e8- | e8 | e4- e2 z2 | e8- | e8 | e8- | e7 e ||[K:C] [Aa]4- [Aa]2 z2 | z8 | %127
w: vre! Et veux|boi-|||re _|jus-||qu'à|_ la|mort! _||
 z8 | z8 | z8 | z8 | z8 | z8 | z8 | z8 | z8 | z8 | z8 |] %138
w: |||||||||||
V:2
!ff!{/f} [Ace] z{/f} [Ace] z (6:4:6z!mf!!<(! AB cdf!<)! | %1
 [Ace] z{/f} [Ace] z (6:4:6z!<(! AB cdf!<)! |!f! [Ace] z"_cresc." (3[Ac]df [Ace] z (3[Ac]df | %3
 [Ace] z (3[Ac]df [Ace] z [cea] z |!ff!{/g} [^Gdf] z{/g} [Gdf] z (6:4:6z!<(! GA Bfe!<)! | %5
!ff! [Bd] z{/f} [F^Gd] z!mf! (6:4:6z!<(! F=G ^Gdc!<)! | [F^GB] z (3DBA [DFG] z (3B,G=G | %7
 [B,DF] z (3^G,FE [G,B,D] z (3F,DB, |!ff! [G,A,^C] z{/a} [A^cg] z (6:4:6z!mf! A!<(!B cde!<)! | %9
!f! [df] z !>!f2- f.d._B.G |!ff!{/f} [FA_e] z{/f} [FAe] z (6:4:6z!mf!!<(! FG A_Bc!<)! | %11
!f! [_Bd] z !>!d2- d.B.F.D |!ff!{/A} [D_A] z{/=A} [D_A] z (6:4:6z DE F=B=A | %13
!ff! [D_A] z{/=A} [D_A] z (6:4:6z DE F=B=A |!f! (3_A"_dim."GA (3=A^GA (3_BAB (3=B^AB | %15
 (3cBc (3^c^Bc (3dcd (3_ede |!p!{/f} [ce] z{/f} [ce] z (6:4:6z!mf!!<(! E^F ^GAB!<)! | %17
!f! [Ac] z!p!{/f} [Ace] z (6:4:6z!<(! E^F ^GAB!<)! |!mf! [Ac] z{/f} [Ace] z z z{/a} [Bdg] z | %19
 z2{/a} [ceg] z z2{/a} [Beg] z |!p!!<(! (3AB^c (3^de^f!<)! ^g z{/^c'} [egb] z | %21
!<(! (3AB^c (3^de^f!<)! ^g z{/^c'} [egb] z | %22
!p!!<(! (3(^d^e^^f (3^g^a^b (3^c'^^d'^e' (3^d'e'^^f')!<)! | %23
!ff!!8va(! [^b^g'] z{/a'} [b^d'^f'g']!8va)! z!mf! (6:4:6z!<(! ^G^A ^B^c^d!<)! | %24
!f! [^ce] z e2- e.^c.A.^^F |!ff!{/a} [^B^d^f^g] z{/a} [Bdfg] z (6:4:6z!<(! ^G,^A, ^B,^C^D!<)! | %26
 [^CE] z !>!E2- E.C.A,.^^F, ||[K:Db]!p! z2 [Aa]2 z2 [Bb]2 |"_crescendo" z2 [cc']2 z2 [dd']2 | %29
 z2 [=d=d']2 z2 [ee']2 | z2 [=e=e']2 z2 [ff']2 | z2!8va(! [gg']2 z2 [=g=g']2 | %32
 z2 [aa']2 z2 [=a=a']2 |!f! z2 [bb']2!8va)!"_dim." z2 [Bb]2 | z2 [dd']2 z2 [cc']2 || %35
[K:E]!p! z2 [Bb]2 z2 [cc']2 | z2 [dd']2 z2 [ee']2 | z2 [^e^e']2 z2 [ff']2 | %38
 z2 [^^f^^f']2 z2 [gg']2 |!f!{/f} [G=de] z{/f} [Gde] z (6:4:6z!<(! EF GAB!<)! | %40
 [Ac] z !>!c2- c.A.E.C |!f!{/a} [^Bdfg] z{/a} [Bdfg] z (6:4:6z!<(! G^A Bcd!<)! | %42
 [ce] z !>!e2- e.c.A.F | (6:4:6E!<(!FG AB=c!<)!!>(! (6:4:6=dcB AG!>)!F | %44
 (6:4:6E!<(!FG AB=c!<)! (6:4:6=d!>(!cB AGF!>)! |!f! (6:4:6EDE"_cresc." =FED (6:4:6EDE FED | %46
!ff! (6:4:6E_E=D _D=CB, (6:4:6_B,A,_A, =G,_G,=F, ||[K:A]!p! E, z!<(! [EGde]4 [EGde]2!<)! | %48
"_cresc." [EGde] z [EGde]4 [EGde]2 |!f! [E^Be] z [Ece]4 [Ece]2 | %50
!p!{/f} [Ace] z{/f} [Ace] z (6:4:6E!<(!FG ABc!<)! |!mf! [Gd] z [EGde]4 [EGde]2 | %52
 [EGde] z [EGde]4 [EGde]2 | [A^Ba] z [ABa]4 [ABa]2 | [A^Ba] z [Aca]4 [Aca]2 | %55
"_cresc." [fg] z [fg]2 (3[fg]2 [fg]2 [fg]2 | [^Bfg]2 [cfg]2- (3[cfg]2 [^^cfg]2 [^dfg]2 | %57
!f! [eg]2 [^eg]4 [ceg]2 | [G^eg]4 [Bcg]4 |!f!!<(! [Afa]2 [^Afa]2- (3[Afa]2 [Bfa]2 [^Bfa]2!<)! | %60
 [cfa]2 [dfa]2- (3[dfa]2 [^dfa]2 [efa]2 |!p!!<(! [Ede]2 [=Fde]2- (3[Fde]2 [^Fde]2 [=Gde]2!<)! | %62
 [Gde]2 [Ade]2- (3[Ade]2 [^Ade]2 [Bde]2 |!f! [Acga] z!p!!<(! [_Bga]2- (3[Bga]2 [=Bga]2 [=cga]2 | %64
 [^cga] z [dga]2- (3[dga]2 [^dga]2 [ega]2!<)! |!f! [A=fa] z!p! [_Bfa]2- (3[Bfa]2 [=Bfa]2 [=cfa]2 | %66
 [^c=fa] z [dfa]2- (3[dfa]2 [efa]2 [fa]2 |!f! [Aga] z"_cresc." [_Bga]2- (3[Bga]2 [=Bga]2 [=cga]2 | %68
 [^cga] z [dga]2- (3[dga]2 [^dga]2 [ega]2 || %69
[K:C]!f! [d^fa] z[K:bass]"_cresc." (3(_E,D,E, (3=E,^D,E, (3=F,E,F, | %70
 (3^F,^E,F, (3G,F,G, (3^G,^^F,G, (3A,G,A,) | %71
!>(! (3(_B,A,_A, (3G,_G,F,)!>)!!>(! (3(B,=A,_A, (3=G,_G,F,)!>)! | %72
!>(! (3(_B,A,_A, (3G,_G,F,)!>)!!>(! (3(B,=A,_A, (3=G,_G,F,)!>)! | %73
!f!"_cresc." (3(_E,D,E, (3=E,^D,E, (3F,E,F, (3^F,^E,F, | %74
 (3G,^F,G, (3_A,G,A, (3=A,^G,A, (3_B,A,B,) | %75
!>(! (3(=B,^A,=A, (3^G,=G,^F,)!>)!!>(! (3(B,^A,=A, (3^G,=G,F,)!>)! | %76
!>(! (3(=B,^A,=A, (3^G,=G,^F,)!>)!!>(! (3(B,^A,=A, (3^G,=G,F,)!>)! | %77
!p!"_cresc." (3(E,^D,E, (3F,E,F, (3^F,^E,F, (3G,F,G, | (3^G,^^F,G, (3A,G,A, (3_B,A,B, (3=B,^A,B,) | %79
!>(! (3(CB,_B, (3A,_A,G,)!>)!!>(! (3(C=B,_B, (3=A,_A,G,)!>)! | %80
!>(! (3(CB,_B, (3A,_A,G,)!>)!!>(! (3(C=B,_B, (3=A,_A,G,)!>)! | %81
!f!"_cresc." (3(F,E,F, (3^F,^E,F, (3G,F,G, (3^G,^^F,G, | (3A,^G,A, (3_B,A,B, (3=B,^A,B, (3CB,C) | %83
[K:treble]"_cresc." (3_DCD (3=D^CD (3_EDE (3=E^DE | (3FEF (3^F^EF (3GFG (3^G^^FG | %85
!f! [DFB] z [DFB] z z4 |!<(!{A,B,CD} E!<)!!ff! z D^C D2 z2 |!f! [_E^Fc] z [EFc] z z4 | %88
!ff!{B,CDE} F z _ED E2 z2 |!f! [EG^c] z [EGc] z z4 |!f! [F^Gd] z [FGd] z z4 |!f! [EAc]2 z2 z4 | %92
 z8 |!mf! (3(e^de"_cresc." (3fed (3ede (3fed | (3e^de (3fed (3ede (3fed | %95
!ff! (3e^d=d (3^c=cB (3_BA_A (3G_GF) |[K:bass] (3(E_ED (3_DCB, (3_B,A,_A, (3G,_G,F,) || %97
[K:A] E, z[K:treble]!p!!<(! ([=F=f]2- (3[Ff]2 [^F^f]2 [=G=g]2 | %98
 [^G^g]2 [Aa]2- (3[Aa]2 [^A^a]2 [Bb]2!<)! |!f! [^B^b]2) [cc']4 [Aa]2 | E4!<(! (6:4:6EFGABc!<)! | %101
 [Gd] z [dd']2- (3[dd']2 [cc']2 [Bb]2 |!f!!<(! (3[^A^a]2 [cc']2 [Bb]2- (3[Bb]2 [cc']2 [dd']2!<)! | %103
!f!!<(! [^d^d']2 [ff']2- (3[ff']2 [ee']2 [dd']2!<)! | %104
!>(! [ff']2 [ee']2- (3[ee']2 [cc']2 [Bb]2!>)! | [Aca] z [_B_b]2- (3[Bb]2 [=B=b]2 [=c=c']2 | %106
!<(! [^c^c']2 [dd']2- (3[dd']2 [^d^d']2 [ee']2!<)! | [^e^e']2!f! [ff']4 [dd']2 | %108
 [Aa]4- (3[Aa]2 [Bb]2 [^B^b]2 |!f! [cc'] z [dd']2- (3[dd']2 [^d^d']2 [ee']2 | %110
 [^e^e']2!8va(! [ff']2- (3[ff']2 [=g=g']2 [^g^g']2 | [aa']2 [^a^a']4 [ff']2!8va)! | %112
!<(! [cc']2 z2 z2 [ff']2!<)! |!ff!!8va(! [ac'a']2 [gc'g']4 [fc'f']2- | %114
 [fc'f']2 [ec'e']2- (3[ec'e']2!8va)! [cc']2 [Aa]2 |!ff! [=GA_e=g]8 | [=FA_e=f]2 z2 z4 | %117
!p!"_crescendo" (3(=E^DE (3=FEF (3^F^EF (3=GFG | (3G^^FG (3AGA (3^A^^GA (3BAB | %119
 (3=cBc (3^c^Bc (3dcd (3^d^^cd) | (3(e^de (3=fef (3^f^ef (3=gfg) | %121
 (3(^g^^fg (3aga (3^a^^ga (3b^ab) | (3(=c'bc' (3^c'bc' (3d'c'd' (3^d'^^c'd' | %123
!8va(! (3e'^d'e' (3=f'e'f' (3^f'^e'f' (3=g'f'g') |!ff! !trill(!T^g'8{f'g'} || %125
[K:C]!ff!{/b'} [c'e'a'] z{/b'} [c'e'a']!8va)! z (6:4:6z AB cdf | [Ace] z z2 [E^Gde] z z2 | %127
!ff!!8va(!{/b'} [c'e'a'] z{/b'} [c'e'a']!8va)! z (6:4:6z AB cdf | [Ace] z z2 [E^Gde] z z2 | %129
!ff!!8va(! (3f''e''_e'' (3d''_d''c'' (3b'_b'a' (3_a'g'_g' | %130
 (3f'e'_e' (3d'_d'c' (3b_ba _a/g/(3^f/=f/e/!8va)! |!f!"^(loco)" _e2 z2 z4 | z8 | %133
 (3z!ff!!<(! (F^F (3G^GA (3^ABc (3^cd^d | (3ef^f (3g^ga (3^abc' (3^c'd'^d')!<)! | %135
!ff! !trill(!Te'8 | !trill(!Te'8{^d'e'} |!ff! [c'e'a'] z!8va(! [c''e''a''] z!8va)! !fermata!z4 |] %138
V:3
 [A,CE] z [A,CE] z!ff! !>![A,,,E,,]4 | [A,CE] z [A,CE] z!ff! !>![A,,,E,,]4 | %2
 [A,CE] z [A,,E,] z [A,CE] z [A,,E,] z | [A,CE] z [A,,E,] z [A,CE] z z2 | %4
 [E,,^G,,B,,E,] z [E,,G,,B,,E,] z z4 | [E,,^G,,B,,E,] z [E,,G,,B,,E,] z z4 | %6
 [E,,^G,,B,,E,] z z2 [E,,G,,B,,E,] z z2 | [E,,^G,,B,,E,] z z2 [E,,G,,B,,E,] z z2 | %8
 [A,,,^C,,E,,A,,] z [A,,,C,,E,,A,,] z z4 | [D,,D,] z !>!F2- F.D._B,.G, | %10
 [F,,A,,C,F,] z [F,,A,,C,F,] z z4 | [_B,,,_B,,] z !>!D2- D._B,.F,.D, | %12
 [_B,,,_B,,] z [B,,,B,,] z z4 | [_B,,,_B,,] z [B,,,B,,] z z4 | %14
 [_B,,,_B,,] z [=B,,,=B,,] z [C,,C,] z [^C,,^C,] z | [D,,D,] z [_E,,_E,] z [=E,,=E,] z [F,,F,] z | %16
 [E,,E,] z [E,A,C] z z2 [E,,E,] z | [A,,,A,,] z [E,A,C] z z2 [E,,E,] z | %18
 [A,,,A,,] z [A,CE] z z2 [G,,G,] z | z2 [C,,C,] z z2 [E,,E,] z | B,, z [B,^DA] z E, z [B,E^G] z | %21
 B,, z [B,^DA] z E, z [B,E^G] z | ^D,, z [^D,^G,^B,] z D,, z [D,^A,^C] z | %23
 [^G,,^G,] z [G,,G,] z z4 | [^C,,^C,] z E2- E.^C.A,.^^F, | [^G,,^G,] z [G,,G,] z z4 | %26
 [^C,,^C,] z !>!E,2- E,.C,.A,,.^^F,, ||[K:Db] A,, z [A,CG] z A,, z [A,CG] z | %28
 D, z [A,DF] z F, z [A,DF] z | E, z [A,CG] z A,, z [A,CG] z | D, z [A,DF] z F, z [A,DF] z | %31
 =E, z [B,C=E] z C, z [B,CE] z | F, z [CEF] z F,, z [CEF] z | B,, z [B,DF] z E, z [G,B,E] z | %34
 A,, z [A,EG] z A,, z [A,EG] z ||[K:E] B,, z [B,DA] z B,, z [B,DA] z | %36
"^cresc." E, z [B,EG] z G, z [B,EG] z | F, z [B,DA] z B,, z [B,DA] z | %38
 E, z [B,EG] z G, z [B,EG] z | [E,,E,] z [E,,E,] z z4 | [A,,,A,,] z !>!C2- C.A,.E,.C, | %41
 [G,,G,] z [G,,G,] z z4 | [C,,C,] z !>!E2- E.C.A,.F, | E,2 z2 (6:4:6=D=CB, A,G,F, | %44
 E,2 z2 (6:4:6=D=CB, A,G,F, | E, z =F, z E, z F, z | E,2 z2 z4 || %47
[K:A] [E,,,E,,] z =F,2- (3F,2 ^F,2 =G,2 | ^G,2 A,2- (3A,2 ^A,2 B,2 | %49
 !arpeggio![A,,E,^B,] z (C4 A,2 | E,8) | E,, z D2- (3D2 C2 B,2 | (3^A,2 C2 B,2- (3B,2 C2 D2 | %53
!ped! x2 F2- (3F2!ped-up! E2 ^D2 | F2 E2- (3E2 C2 A,2 | !arpeggio![G,,G,]2 A,2- (3A,2 ^A,2 B,2 | %56
 !arpeggio![G,,^B,]2 C2- (3C2 ^^C2 ^D2 | !arpeggio![C,E]2 ^E4 C2 | (G,4 B,4) | %59
 !arpeggio![A,,A,]2 ^A,2- (3A,2 B,2 ^B,2 | C2 D2- (3D2 ^D2 E2 | z2 (=F,2 (3F,2) ^F,2 =G,2 | %62
 G,2 A,2- (3A,2 ^A,2 B,2 | [A,,,A,,] z!ped! !///-![A,C] =G !//-![A,C]2 G2 | %64
 !//-![A,C]2 G2 [A,C]2!ped-up! z2 | [A,,,A,,] z!ped! !///-![A,D]!<(! =F !//-![A,D]2 F2 | %66
 !///-![A,D]2 =F2 [A,D]2!ped-up!!<)! z2 | [A,,,A,,] z !///-![A,C] =G !//-![A,C]2 G2 | %68
 !//-![A,C]2 =G2 [A,C]2 z2 ||[K:C] [D,,,D,,] z!8vb(! !//-!D,,,3 B,,,3 | %70
 !//-!D,,,2 D,,2 !//-!D,,,2 D,,2 | !//-!D,,,2 D,,2 !//-!D,,,2 D,,2 | %72
 !//-!D,,,2 D,,2 !//-!D,,,2 D,,2 | !//-!D,,,2 D,,2 !//-!D,,,2 D,,2 | %74
 !//-!D,,,2 D,,2 !//-!D,,,2 D,,2 | !//-!D,,,2 D,,2 !//-!D,,,2 D,,2 | %76
 !//-!D,,,2 D,,2 !//-!D,,,2 D,,2 | !//-!D,,,2 D,,2 !//-!D,,,2 D,,2 | %78
 !//-!D,,,2 D,,2 !//-!D,,,2 D,,2 | !//-!D,,,2 D,,2 !//-!D,,,2 D,,2 | %80
 !//-!D,,,2 D,,2 !//-!D,,,2 D,,2 | !//-!D,,,2 D,,2 !//-!D,,,2 D,,2 | %82
 !//-!D,,,2 D,,2 !//-!D,,,2 D,,2 | !//-!D,,,2 D,,2 !//-!D,,,2 D,,2 | %84
 !//-!D,,,2 D,,2 !//-!D,,,2 D,,2!8vb)! |"^(loco)" [^G,,,^G,,] z [G,,,G,,] z z4 | %86
{A,,B,,C,D,} E, z D,^C, D,2 z2 | [A,,,A,,] z [A,,,A,,] z z4 |{B,,C,D,E,} F, z _E,D, E,2 z2 | %89
 [^A,,,^A,,] z [A,,,A,,] z z4 | [B,,,B,,] z [B,,,B,,] z z4 | [C,,C,]2 z2 z4 | z8 | %93
 [E,^G,B,DE] z [F,G,B,EF] z [E,G,B,DE] z [F,G,B,EF] z | %94
 [E,^G,B,DE] z [F,G,B,EF] z [E,G,B,DE] z [F,G,B,EF] z | [E,^G,B,DE] z z2 z4 | %96
 (3(E,_E,D, (3_D,C,B,, (3_B,,A,,_A,, (3G,,_G,,F,,) ||[K:A] E,, z !//-![E,G,]3 D3 | %98
 !//-![E,G,]2 D2 !//-![E,G,]2 D2 | [A,,,A,,] z !//-![E,A,]3 C3 | !///-![E,A,]4 C4 | %101
 [E,,E,] z !//-![E,G,]3 D3 | !///-![E,G,]4 D4 | [A,,,A,,] z !//-![E,A,]3 C3 | %104
 !//-![E,A,]2 C2 [E,A,]2 z2 | [A,,,A,,] z !///-![A,C]3 =G3 | !///-![A,C]4 =G4 | %107
 [D,,D,] z !//-![A,D]3 F3 | !//-![A,D]2!<(! F2 [A,D]2 z2!<)! | [C,,C,] z[K:treble] !//-![C^E]3 B3 | %110
 !///-![C^E]4 B4 |[K:bass] [F,,F,] z z2[K:treble] !//-![CF]2 ^A2 | %112
!ped! !//-![CF]2 ^A2 [CF]!ped-up! z [=C^DA] z |[K:bass] [E,,E,] z!ped! !//-![E,A,]3 C3!ped-up! | %114
 !///-![E,A,]4 C4 | !///-!=F,,4 =F,4 | [=F,,=F,]2 z2 z4 | %117
 [=E,,G,,B,,D,=E,] z [=F,,G,,B,,E,=F,] z [E,,G,,B,,D,E,] z [F,,G,,B,,E,F,] z | %118
 [E,,G,,B,,D,E,] z [=F,,G,,B,,E,=F,] z [E,,G,,B,,D,E,] z [F,,G,,B,,E,F,] z | %119
 [E,,G,,B,,D,E,] z [=F,,G,,B,,E,=F,] z [E,,G,,B,,D,E,] z [F,,G,,B,,E,F,] z | %120
 [E,,G,,B,,D,E,] z [=F,,G,,B,,E,=F,] z [E,,G,,B,,D,E,] z [F,,G,,B,,E,F,] z | %121
 [E,,G,,B,,D,E,] z [=F,,G,,B,,E,=F,] z [E,,G,,B,,D,E,] z [F,,G,,B,,E,F,] z | %122
 [E,,G,,B,,D,E,] z [=F,,G,,B,,E,=F,] z [E,,G,,B,,D,E,] z [F,,G,,B,,E,F,] z | %123
 [E,,G,,B,,D,E,] z [=F,,G,,B,,E,=F,] z [E,,G,,B,,D,E,] z [F,,G,,B,,E,F,] z | %124
 [E,,G,,B,,D,E,]2 z2 z4 ||[K:C] [A,,,C,,E,,A,,] z [A,,,C,,E,,A,,] z z4 | %126
 !>!C z !>!B,!>!A, !>!B,2 !>!E,2 | [A,,,C,,E,,A,,] z [A,,,C,,E,,A,,] z z4 | %128
 !>!C z !>!B,!>!A, !>!B,2 !>!E,2 | [_E,,A,,C,_E,]8- | [_E,,A,,C,_E,]8 | %131
 (3(=E,,"^cresc."F,,^F,, (3G,,^G,,A,, (3^A,,B,,C, (3^C,D,^D, | %132
 (3E,F,^F, (3G,^G,A, (3^A,B,C (3^CD^D) | E8- | E8 | %135
 [E,^G,B,DE] z [=F,G,B,E=F] z [E,G,B,DE] z [F,G,B,EF] z | %136
 [E,G,B,DE] z [=F,G,B,E=F] z [E,G,B,DE] z z2 | [A,,C,E,A,] z [A,,,C,,E,,A,,] z !fermata!z4 |] %138
V:4
 x8 | x8 | x8 | x8 | x8 | x8 | x8 | x8 | x8 | x8 | x8 | x8 | x8 | x8 | x8 | x8 | x8 | x8 | x8 | %19
 x8 | x8 | x8 | x8 | x8 | x8 | x8 | x8 ||[K:Db] x8 | x8 | x8 | x8 | x8 | x8 | x8 | x8 ||[K:E] x8 | %36
 x8 | x8 | x8 | x8 | x8 | x8 | x8 | x8 | x8 | x8 | x8 ||[K:A] x8 | x8 | x8 | x8 | x8 | x8 | %53
 !arpeggio![A,-^D]2 A,2 x4 | x8 | x8 | x8 | x8 | x8 | x8 | x8 | !arpeggio![E,,E,]4- [E,,E,]2 z2 | %62
 x8 | x8 | x8 | x8 | x8 | x8 | x8 ||[K:C] x2!8vb(! x6 | x8 | x8 | x8 | x8 | x8 | x8 | x8 | x8 | %78
 x8 | x8 | x8 | x8 | x8 | x8 | x8!8vb)! | x8 | x8 | x8 | x8 | x8 | x8 | x8 | x8 | x8 | x8 | x8 | %96
 x8 ||[K:A] x8 | x8 | x8 | x8 | x8 | x8 | x8 | x8 | x8 | x8 | x8 | x8 | x2[K:treble] x6 | x8 | %111
[K:bass] x4[K:treble] x4 | x8 |[K:bass] x8 | x8 | x8 | x8 | x8 | x8 | x8 | x8 | x8 | x8 | x8 | %124
 x8 ||[K:C] x8 | x8 | x8 | x8 | x8 | x8 | x8 | x8 | z2 [E,A,C] z [E,A,C] z [E,A,C] z | %134
 [E,A,C] z [E,A,C] z [E,A,C] z [E,A,C] z | x8 | x8 | x8 |] %138
V:5
 x8 | x8 | x8 | x8 | x8 | x8 | x8 | x8 | x8 | x8 | x8 | x8 | x8 | x8 | x8 | x8 | x8 | x8 | x8 | %19
 x8 | x8 | x8 | x8 |!8va(! x3!8va)! x5 | x8 | x8 | x8 ||[K:Db] x8 | x8 | x8 | x8 | x2!8va(! x6 | %32
 x8 | x4!8va)! x4 | x8 ||[K:E] x8 | x8 | x8 | x8 | x8 | x8 | x8 | x8 | x8 | x8 | x8 | x8 || %47
[K:A] x8 | x8 | x8 | x8 | x8 | x8 | x8 | x8 | G2 A2- (3A2 ^A2 B2 | x8 | x8 | x8 | x8 | x8 | x8 | %62
 x8 | x8 | x8 | x8 | x8 | x8 | x8 ||[K:C] x2[K:bass] x6 | x8 | x8 | x8 | x8 | x8 | x8 | x8 | x8 | %78
 x8 | x8 | x8 | x8 | x8 |[K:treble] x8 | x8 | x8 | x8 | x8 | x8 | x8 | x8 | x8 | x8 | x8 | x8 | %95
 x8 |[K:bass] x8 ||[K:A] x2[K:treble] x6 | x8 | x8 | e4- e2 x2 | x8 | x8 | x8 | x8 | x8 | x8 | x8 | %108
 x8 | x8 | x2!8va(! x6 | x8!8va)! | x8 |!8va(! x8 | x16/3!8va)! x8/3 | x8 | x8 | x8 | x8 | x8 | %120
 x8 | x8 | x8 |!8va(! x8 | x8 ||[K:C] x3!8va)! x5 | x8 |!8va(! x3!8va)! x5 | x8 |!8va(! x8 | %130
 x8!8va)! | x8 | x8 | x8 | x8 | x8 | x8 | x2!8va(! x2!8va)! x4 |] %138

